X:215
T: DAS WAREN MIR SELIGE TAGE
N: B0253
O: Europa, Mitteleuropa, Deutschland, Thueringen
R: Stimmungs - Lied, Sehnsucht
M: 4/4
L: 1/8
K: C
G,2 | G,EDCCB,A,G, | G,3CC3
G, | E2DCCB,A,G, | G,3CC2
E2 | ECCCC2DE | D4z2
D2 | DB,G,E,D,2E,^F, | G,4z2
D2 | DB,B,B,B,G,G,G, | G,EC4
C2 | DB,B,B,B,G,G,G, | G,EC4
G,2 | C2CCC2DE | D4E2
DC | CB,A,G,G,2A,B, | C4z2

@@@ Tune index: 2018
